X:1
T:The Road to Bruges
M:6/8
L:1/8
Q:110
C:(c) Greg Anderson, 16 Jan 2000
R:Jig
H:The incredibly scenic, windy, country road linking the villages of
H:Arthez-d'Asson and Bruges in the foothills of the Pyrénées Mountains
H:near Lourdes was the inspiration for this tune
K:A
ed|:cAA BAF|ECC CDF| DEF BAF|
EFG Bed| cAA BAF|ECC CDF|DEF BAG|
1EFG A2 e:|2EFG ABc|:dBB Ecd|cGA CDE|
FGA BcA|GEE EBc|dBB Ecd|cGA CDE|
FGA Bcd|1edG ABc:|2edG Aed||
